.icons/hicolor/scalable/apps/goa-account-exchange.svg

<?xml version="1.0" encoding="UTF-8"?>
<svg id="svg11300" width="128" height="128" style="enable-background:new" version="1.0" viewBox="0 0 128 128" xml:space="preserve" xmlns="http://www.w3.org/2000/svg" xmlns:cc="http://creativecommons.org/ns#" xmlns:dc="http://purl.org/dc/elements/1.1/" xmlns:rdf="http://www.w3.org/1999/02/22-rdf-syntax-ns#" xmlns:xlink="http://www.w3.org/1999/xlink"><title id="title4162">Adwaita Icon Template</title><defs id="defs3"><clipPath id="b"><path id="path1" d="M0 0h192v152H0z"/></clipPath><clipPath id="c"><path id="path2" d="M0 0h192v152H0z"/></clipPath><clipPath id="d"><path id="path3" d="M0 0h192v152H0z"/></clipPath><clipPath id="e"><path id="path4" d="M0 0h192v152H0z"/></clipPath><mask id="i"><g id="g5" filter="url(#a)"><path id="path5" d="M0 0h128v128H0z" fill-opacity=".1"/></g></mask><mask id="g"><g id="g6" filter="url(#a)"><path id="path6" d="M0 0h128v128H0z" fill-opacity=".2"/></g></mask><mask id="k"><g id="g7" filter="url(#a)"><path id="path7" d="M0 0h128v128H0z" fill-opacity=".2"/></g></mask><mask id="m"><g id="g8" filter="url(#a)"><path id="path8" d="M0 0h128v128H0z" fill-opacity=".1"/></g></mask><g id="h" clip-path="url(#c)"><path id="path9" d="M73.027 54.629v52.726a7.286 7.286 0 01-7.215 7.215H19.965V47.414h45.847a7.238 7.238 0 017.215 7.215zm0 0"/></g><g id="j" clip-path="url(#d)"><path id="path10" d="M70.86 54.629v52.726a5.037 5.037 0 01-5.047 5.047H19.965V49.578h45.847a5.038 5.038 0 015.047 5.05zm0 0"/></g><g id="f" clip-path="url(#b)"><path id="path11" d="M70.86 54.629v57.059c.003.292-.024.582-.087.867a5.007 5.007 0 01-4.96 4.18H19.965V49.577h45.847a5.038 5.038 0 015.047 5.05zm0 0"/></g><g id="l" clip-path="url(#e)"><path id="path12" d="m68.695 54.629v52.726a5.04 5.04 0 0 1-5.05 5.047h-43.68v-62.824h43.68a5.041 5.041 0 0 1 5.05 5.05z"/></g><filter id="a" x="0" y="0" width="1" height="1"><feColorMatrix id="feColorMatrix12" in="SourceGraphic" values="0 0 0 0 1 0 0 0 0 1 0 0 0 0 1 0 0 0 1 0"/></filter></defs><metadata id="metadata4"><rdf:RDF><cc:Work rdf:about=""><dc:format>image/svg+xml</dc:format><dc:type rdf:resource="http://purl.org/dc/dcmitype/StillImage"/><dc:creator><cc:Agent><dc:title>GNOME Design Team</dc:title></cc:Agent></dc:creator><dc:source/><cc:license rdf:resource="http://creativecommons.org/licenses/by-sa/4.0/"/><dc:title>Adwaita Icon Template</dc:title><dc:subject><rdf:Bag/></dc:subject><dc:date/><dc:rights><cc:Agent><dc:title/></cc:Agent></dc:rights><dc:publisher><cc:Agent><dc:title/></cc:Agent></dc:publisher><dc:identifier/><dc:relation/><dc:language/><dc:coverage/><dc:description/><dc:contributor><cc:Agent><dc:title/></cc:Agent></dc:contributor></cc:Work><cc:License rdf:about="http://creativecommons.org/licenses/by-sa/4.0/"><cc:permits rdf:resource="http://creativecommons.org/ns#Reproduction"/><cc:permits rdf:resource="http://creativecommons.org/ns#Distribution"/><cc:requires rdf:resource="http://creativecommons.org/ns#Notice"/><cc:requires rdf:resource="http://creativecommons.org/ns#Attribution"/><cc:permits rdf:resource="http://creativecommons.org/ns#DerivativeWorks"/><cc:requires rdf:resource="http://creativecommons.org/ns#ShareAlike"/></cc:License></rdf:RDF></metadata><rect id="rect929-36-9" x="12" y="12" width="104" height="104" rx="16" style="enable-background:new;fill:#f6f5f4;paint-order:normal"/><g id="g2" transform="matrix(.76937 0 0 .76937 17.754 14.831)" style="stroke-width:1.2998"><path id="path13" d="m108.44 11.918h-26.443a7.56 7.56 0 0 0-5.348 2.215l-62.417 62.414a7.567 7.567 0 0 0-2.214 5.348v26.445a7.56 7.56 0 0 0 7.562 7.558h26.445a7.557 7.557 0 0 0 5.344-2.214l62.418-62.414a7.567 7.567 0 0 0 2.215-5.348v-26.445a7.56 7.56 0 0 0-7.563-7.559z" fill="#28a8ea" style="stroke-width:1.2998"/><path id="path14" d="m108.44 115.9h-26.445a7.56 7.56 0 0 1-5.348-2.214l-12.64-12.637v-23.621c0-7.465 6.05-13.52 13.52-13.52h23.617l12.64 12.64a7.567 7.567 0 0 1 2.215 5.35v26.445a7.56 7.56 0 0 1-7.559 7.558z" fill="#0078d4" style="stroke-width:1.2998"/><path id="path15" d="m19.578 11.918h26.445c2.004 0 3.926 0.797 5.344 2.215l12.64 12.637v23.62c0 7.465-6.05 13.516-13.515 13.516h-23.62l-12.642-12.636a7.567 7.567 0 0 1-2.214-5.348v-26.445a7.56 7.56 0 0 1 7.562-7.559z" fill="#50d9ff" style="stroke-width:1.2998"/><use id="use15" transform="translate(-8,-16)" mask="url(#g)" style="stroke-width:1.2998" xlink:href="#f"/><use id="use16" transform="translate(-8,-16)" mask="url(#i)" style="stroke-width:1.2998" xlink:href="#h"/><use id="use17" transform="translate(-8,-16)" mask="url(#k)" style="stroke-width:1.2998" xlink:href="#j"/><use id="use18" transform="translate(-8,-16)" mask="url(#m)" style="stroke-width:1.2998" xlink:href="#l"/><path id="path18" d="m2.371 33.578h55.989a2.337 2.337 0 0 1 2.336 2.336v55.988a2.337 2.337 0 0 1-2.336 2.336h-55.989a2.334 2.334 0 0 1-2.331-2.336v-55.988a2.334 2.334 0 0 1 2.332-2.336z" fill="#0078d4" style="stroke-width:1.2998"/><path id="path19" d="m40.3 52.82h-17.42v8.293h16.55v5.317h-16.55v8.613h18.176v5.293h-24.616v-32.856h23.86z" fill="#fff" style="stroke-width:1.2998"/></g></svg>

<?xml version="1.0" encoding="UTF-8"?>
<svg width="128" height="128" xmlns="http://www.w3.org/2000/svg" xmlns:xlink="http://www.w3.org/1999/xlink">
 <defs>
  <clipPath id="b">
   <path d="M0 0h192v152H0z"/>
  </clipPath>
  <clipPath id="c">
   <path d="M0 0h192v152H0z"/>
  </clipPath>
  <clipPath id="d">
   <path d="M0 0h192v152H0z"/>
  </clipPath>
  <clipPath id="e">
   <path d="M0 0h192v152H0z"/>
  </clipPath>
  <mask id="i">
   <g filter="url(#a)">
    <path d="M0 0h128v128H0z" fill-opacity=".1"/>
   </g>
  </mask>
  <mask id="g">
   <g filter="url(#a)">
    <path d="M0 0h128v128H0z" fill-opacity=".2"/>
   </g>
  </mask>
  <mask id="k">
   <g filter="url(#a)">
    <path d="M0 0h128v128H0z" fill-opacity=".2"/>
   </g>
  </mask>
  <mask id="m">
   <g filter="url(#a)">
    <path d="M0 0h128v128H0z" fill-opacity=".1"/>
   </g>
  </mask>
  <g id="h" clip-path="url(#c)">
   <path d="M73.027 54.629v52.726a7.286 7.286 0 01-7.215 7.215H19.965V47.414h45.847a7.238 7.238 0 017.215 7.215zm0 0"/>
  </g>
  <g id="j" clip-path="url(#d)">
   <path d="M70.86 54.629v52.726a5.037 5.037 0 01-5.047 5.047H19.965V49.578h45.847a5.038 5.038 0 015.047 5.05zm0 0"/>
  </g>
  <g id="f" clip-path="url(#b)">
   <path d="M70.86 54.629v57.059c.003.292-.024.582-.087.867a5.007 5.007 0 01-4.96 4.18H19.965V49.577h45.847a5.038 5.038 0 015.047 5.05zm0 0"/>
  </g>
  <g id="l" clip-path="url(#e)">
   <path d="m68.695 54.629v52.726a5.04 5.04 0 0 1-5.05 5.047h-43.68v-62.824h43.68a5.041 5.041 0 0 1 5.05 5.05z"/>
  </g>
  <filter id="a" x="0%" y="0%" width="100%" height="100%">
   <feColorMatrix in="SourceGraphic" values="0 0 0 0 1 0 0 0 0 1 0 0 0 0 1 0 0 0 1 0"/>
  </filter>
 </defs>
 <path d="M108.438 11.918H81.995a7.56 7.56 0 00-5.348 2.215L14.23 76.547a7.567 7.567 0 00-2.214 5.348v26.445a7.56 7.56 0 007.562 7.558h26.445a7.557 7.557 0 005.344-2.214l62.418-62.414A7.567 7.567 0 00116 45.922V19.477a7.56 7.56 0 00-7.563-7.559zm0 0" fill="#28a8ea"/>
 <path d="m108.44 115.9h-26.445a7.56 7.56 0 0 1-5.348-2.214l-12.64-12.637v-23.621c0-7.465 6.05-13.52 13.52-13.52h23.617l12.64 12.64a7.567 7.567 0 0 1 2.215 5.35v26.445a7.56 7.56 0 0 1-7.559 7.558z" fill="#0078d4"/>
 <path d="M19.578 11.918h26.445c2.004 0 3.926.797 5.344 2.215l12.64 12.637v23.62c0 7.465-6.05 13.516-13.515 13.516h-23.62L14.23 51.27a7.567 7.567 0 01-2.214-5.348V19.477a7.56 7.56 0 017.562-7.559zm0 0" fill="#50d9ff"/>
 <use transform="translate(-8 -16)" mask="url(#g)" xlink:href="#f"/>
 <use transform="translate(-8 -16)" mask="url(#i)" xlink:href="#h"/>
 <use transform="translate(-8 -16)" mask="url(#k)" xlink:href="#j"/>
 <use transform="translate(-8 -16)" mask="url(#m)" xlink:href="#l"/>
 <path d="M2.371 33.578H58.36a2.337 2.337 0 012.336 2.336v55.988a2.337 2.337 0 01-2.336 2.336H2.371A2.334 2.334 0 01.04 91.902V35.914a2.334 2.334 0 012.332-2.336zm0 0" fill="#0078d4"/>
 <path d="M40.3 52.82H22.88v8.293h16.55v5.317H22.88v8.613h18.176v5.293H16.44V47.48h23.86zm0 0" fill="#fff"/>
</svg>
